**kern
*staff3
*tb48
=1-
*clefF4
*k[b-]
*met(c)
*M4/4
[1AA/ [1A/
.
.
.
.
.
.
.
.
.
.
.
.
.
.
.
.
.
.
.
.
.
.
.
.
.
.
.
.
.
.
.
.
.
.
.
.
.
.
.
.
.
.
.
.
.
.
.
=2
1AA\_ 1A\_
.
.
.
.
.
.
.
.
.
.
.
.
.
.
.
.
.
.
.
.
.
.
.
.
.
.
.
.
.
.
.
.
.
.
.
.
.
.
.
.
.
.
.
.
.
.
.
=3
4AA\] 4A\]
.
.
.
.
.
.
.
.
.
.
.
4AA/
.
.
.
.
.
.
.
.
.
.
.
4A\
.
.
.
.
.
.
.
.
.
.
.
4GG/ 4G/
.
.
.
.
.
.
.
.
.
.
.
=4
4FF/ 4F/
.
.
.
.
.
.
.
.
.
.
.
4EE/ 4E/
.
.
.
.
.
.
.
.
.
.
.
4DD/ 4D/
.
.
.
.
.
.
.
.
.
.
.
8EE/L
.
.
.
.
.
8DD/J
.
.
.
.
.
=5
!!linebreak:original
4CC#/
.
.
.
.
.
.
.
.
.
.
.
4AA/
.
.
.
.
.
.
.
.
.
.
.
4D\
.
.
.
.
.
.
.
.
.
.
.
4r
.
.
.
.
.
.
.
.
.
.
.
=6
1DD/ 1D/
.
.
.
.
.
.
.
.
.
.
.
.
.
.
.
.
.
.
.
.
.
.
.
.
.
.
.
.
.
.
.
.
.
.
.
.
.
.
.
.
.
.
.
.
.
.
.
=7
4r
.
.
.
.
.
.
.
.
.
.
.
4DD/ 4D/
.
.
.
.
.
.
.
.
.
.
.
4D\ 4d\
.
.
.
.
.
.
.
.
.
.
.
4C\ 4c\
.
.
.
.
.
.
.
.
.
.
.
=8
8Bn\
.
.
.
.
.
4C\ 4c\
.
.
.
.
.
.
.
.
.
.
.
2D\ 2G\ 2d\
.
.
.
.
.
.
.
.
.
.
.
.
.
.
.
.
.
.
.
.
.
.
.
8r
.
.
.
.
.
=9
!!linebreak:original
2.C\ 2.c\
.
.
.
.
.
.
.
.
.
.
.
.
.
.
.
.
.
.
.
.
.
.
.
.
.
.
.
.
.
.
.
.
.
.
.
4C\ 4B-\
.
.
.
.
.
.
.
.
.
.
.
=10
2.FF/ 2.F/
.
.
.
.
.
.
.
.
.
.
.
.
.
.
.
.
.
.
.
.
.
.
.
.
.
.
.
.
.
.
.
.
.
.
.
4F\
.
.
.
.
.
.
.
.
.
.
.
=11
4E\
.
.
.
.
.
.
.
.
.
.
.
4D\ 4d\
.
.
.
.
.
.
.
.
.
.
.
4C\ 4c\
.
.
.
.
.
.
.
.
.
.
.
4BB-\ 4B-\
.
.
.
.
.
.
.
.
.
.
.
=12
4AA\ 4A\
.
.
.
.
.
.
.
.
.
.
.
4C/
.
.
.
.
.
.
.
.
.
.
.
4D\
.
.
.
.
.
.
.
.
.
.
.
4AA/
.
.
.
.
.
.
.
.
.
.
.
=13
!!linebreak:original
4BB-/
.
.
.
.
.
.
.
.
.
.
.
4AA/
.
.
.
.
.
.
.
.
.
.
.
4BB-/
.
.
.
.
.
.
.
.
.
.
.
4AA/
.
.
.
.
.
.
.
.
.
.
.
=14
*^
4r	1BB-/
.	.
.	.
.	.
.	.
.	.
.	.
.	.
.	.
.	.
.	.
.	.
(4A/ 4c/	.
.	.
.	.
.	.
.	.
.	.
.	.
.	.
.	.
.	.
.	.
.	.
(2B-/	.
.	.
.	.
.	.
.	.
.	.
.	.
.	.
.	.
.	.
.	.
.	.
.	.
.	.
.	.
.	.
.	.
.	.
.	.
.	.
.	.
.	.
.	.
.	.
*v	*v
=15
4BB-\) 4B-\
.
.
.
.
.
.
.
.
.
.
.
4AA\ 4A\
.
.
.
.
.
.
.
.
.
.
.
4GG/ 4G/
.
.
.
.
.
.
.
.
.
.
.
4FF#/ 4F#/
.
.
.
.
.
.
.
.
.
.
.
=16
4GG/ 4G/
.
.
.
.
.
.
.
.
.
.
.
4FFn/ 4F/
.
.
.
.
.
.
.
.
.
.
.
4EE/ 4E/
.
.
.
.
.
.
.
.
.
.
.
4AA\ 4A\
.
.
.
.
.
.
.
.
.
.
.
=17
!!linebreak:original
2DD/ 2D/
.
.
.
.
.
.
.
.
.
.
.
.
.
.
.
.
.
.
.
.
.
.
.
4r
.
.
.
.
.
.
.
.
.
.
.
4EE/ 4E/
.
.
.
.
.
.
.
.
.
.
.
=18
4FF/ 4F/
.
.
.
.
.
.
.
.
.
.
.
4BB-\ 4G\
.
.
.
.
.
.
.
.
.
.
.
*^
4A/	2AA\
.	.
.	.
.	.
.	.
.	.
.	.
.	.
.	.
.	.
.	.
.	.
4G/	.
.	.
.	.
.	.
.	.
.	.
.	.
.	.
.	.
.	.
.	.
.	.
*v	*v
=19
4D\ 4F\
.
.
.
.
.
.
.
.
.
.
.
4r
.
.
.
.
.
.
.
.
.
.
.
[2AA\ [2A\
.
.
.
.
.
.
.
.
.
.
.
.
.
.
.
.
.
.
.
.
.
.
.
=20
2AA\] 2A\]
.
.
.
.
.
.
.
.
.
.
.
.
.
.
.
.
.
.
.
.
.
.
.
[2AA\ [2A\
.
.
.
.
.
.
.
.
.
.
.
.
.
.
.
.
.
.
.
.
.
.
.
=21
!!linebreak:original
1AA/_ 1A/_
.
.
.
.
.
.
.
.
.
.
.
.
.
.
.
.
.
.
.
.
.
.
.
.
.
.
.
.
.
.
.
.
.
.
.
.
.
.
.
.
.
.
.
.
.
.
.
=22
1AA/] 1A/]
.
.
.
.
.
.
.
.
.
.
.
.
.
.
.
.
.
.
.
.
.
.
.
.
.
.
.
.
.
.
.
.
.
.
.
.
.
.
.
.
.
.
.
.
.
.
.
=23
4r
.
.
.
.
.
.
.
.
.
.
.
4AA/
.
.
.
.
.
.
.
.
.
.
.
4A\
.
.
.
.
.
.
.
.
.
.
.
4AA/
.
.
.
.
.
.
.
.
.
.
.
=24
(4GG/
.
.
.
.
.
.
.
.
.
.
.
4FF/) 4F/
.
.
.
.
.
.
.
.
.
.
.
4EE/ 4E/
.
.
.
.
.
.
.
.
.
.
.
4DD/ 4D/
.
.
.
.
.
.
.
.
.
.
.
=25
!!linebreak:original
4CC#/ 4C#/
.
.
.
.
.
.
.
.
.
.
.
4AA/
.
.
.
.
.
.
.
.
.
.
.
([2DD/ [2D/
.
.
.
.
.
.
.
.
.
.
.
.
.
.
.
.
.
.
.
.
.
.
.
=26
1DD/_) 1D/_
.
.
.
.
.
.
.
.
.
.
.
.
.
.
.
.
.
.
.
.
.
.
.
.
.
.
.
.
.
.
.
.
.
.
.
.
.
.
.
.
.
.
.
.
.
.
.
=27
4DD/] 4D/]
.
.
.
.
.
.
.
.
.
.
.
4DD/ 4D/
.
.
.
.
.
.
.
.
.
.
.
4D\ 4d\
.
.
.
.
.
.
.
.
.
.
.
4C\ 4c\
.
.
.
.
.
.
.
.
.
.
.
=28
8AA'/ 8BB-'/ 8C'/
.
.
.
.
.
4C\ 4c\
.
.
.
.
.
.
.
.
.
.
.
2D\ 2d\
.
.
.
.
.
.
.
.
.
.
.
.
.
.
.
.
.
.
.
.
.
.
.
8r
.
.
.
.
.
=29
!!linebreak:original
*^
2.c/	1C/
.	.
.	.
.	.
.	.
.	.
.	.
.	.
.	.
.	.
.	.
.	.
.	.
.	.
.	.
.	.
.	.
.	.
.	.
.	.
.	.
.	.
.	.
.	.
.	.
.	.
.	.
.	.
.	.
.	.
.	.
.	.
.	.
.	.
.	.
.	.
4B-/	.
.	.
.	.
.	.
.	.
.	.
.	.
.	.
.	.
.	.
.	.
.	.
=30	=30
2.FF\	4A/
.	.
.	.
.	.
.	.
.	.
.	.
.	.
.	.
.	.
.	.
.	.
.	8B-/L 8d/L
.	.
.	.
.	.
.	.
.	.
.	8A/J 8c/J
.	.
.	.
.	.
.	.
.	.
.	4A/ 4c/
.	.
.	.
.	.
.	.
.	.
.	.
.	.
.	.
.	.
.	.
.	.
*v	*v
4F\ 4f\
.
.
.
.
.
.
.
.
.
.
.
=31
4E\ 4e\
.
.
.
.
.
.
.
.
.
.
.
4D\ 4d\
.
.
.
.
.
.
.
.
.
.
.
4C\ 4c\
.
.
.
.
.
.
.
.
.
.
.
4BB-\ 4B-\
.
.
.
.
.
.
.
.
.
.
.
=32
!!linebreak:original
4AA\ 4A\
.
.
.
.
.
.
.
.
.
.
.
4C\ 4G\
.
.
.
.
.
.
.
.
.
.
.
4D\ 4F\
.
.
.
.
.
.
.
.
.
.
.
4AA/
.
.
.
.
.
.
.
.
.
.
.
=33
4BB-/
.
.
.
.
.
.
.
.
.
.
.
4AA/
.
.
.
.
.
.
.
.
.
.
.
4BB-/
.
.
.
.
.
.
.
.
.
.
.
4A\ 4c\
.
.
.
.
.
.
.
.
.
.
.
=34
2.BB-\ 2.B-\
.
.
.
.
.
.
.
.
.
.
.
.
.
.
.
.
.
.
.
.
.
.
.
.
.
.
.
.
.
.
.
.
.
.
.
4C\ 4c\
.
.
.
.
.
.
.
.
.
.
.
=35
4BB-\ 4B-\
.
.
.
.
.
.
.
.
.
.
.
4AA\ 4A\
.
.
.
.
.
.
.
.
.
.
.
4GG/ 4G/
.
.
.
.
.
.
.
.
.
.
.
4FF#/ 4F#/
.
.
.
.
.
.
.
.
.
.
.
=36
!!linebreak:original
(4GG/ 4G/
.
.
.
.
.
.
.
.
.
.
.
4FFn/ 4Fn/
.
.
.
.
.
.
.
.
.
.
.
4EE-/ 4E-/
.
.
.
.
.
.
.
.
.
.
.
4EEn/) 4En/
.
.
.
.
.
.
.
.
.
.
.
=37
2DD/ 2D/
.
.
.
.
.
.
.
.
.
.
.
.
.
.
.
.
.
.
.
.
.
.
.
4r
.
.
.
.
.
.
.
.
.
.
.
4EE/ 4E/
.
.
.
.
.
.
.
.
.
.
.
=38
4FF/ 4F/
.
.
.
.
.
.
.
.
.
.
.
4BB-/
.
.
.
.
.
.
.
.
.
.
.
2AA/
.
.
.
.
.
.
.
.
.
.
.
.
.
.
.
.
.
.
.
.
.
.
.
=39
!!linebreak:original
2DD/ 2D/
.
.
.
.
.
.
.
.
.
.
.
.
.
.
.
.
.
.
.
.
.
.
.
[2AA\ [2A\
.
.
.
.
.
.
.
.
.
.
.
.
.
.
.
.
.
.
.
.
.
.
.
=40
2AA\] 2A\]
.
.
.
.
.
.
.
.
.
.
.
.
.
.
.
.
.
.
.
.
.
.
.
[2AA\ [2A\
.
.
.
.
.
.
.
.
.
.
.
.
.
.
.
.
.
.
.
.
.
.
.
=41
2AA\] 2A\]
.
.
.
.
.
.
.
.
.
.
.
.
.
.
.
.
.
.
.
.
.
.
.
([2DD/ [2D/
.
.
.
.
.
.
.
.
.
.
.
.
.
.
.
.
.
.
.
.
.
.
.
=42
1DD/]) 1D/]
.
.
.
.
.
.
.
.
.
.
.
.
.
.
.
.
.
.
.
.
.
.
.
.
.
.
.
.
.
.
.
.
.
.
.
.
.
.
.
.
.
.
.
.
.
.
.
==
*-
